src/assets/light/IconRewards.svg

<svg width="57" height="56" viewBox="0 0 57 56" fill="none" xmlns="http://www.w3.org/2000/svg">
<path d="M20.2871 22.8576C22.392 23.5752 25.1822 23.9705 28.1438 23.9705C31.1055 23.9705 33.8957 23.5752 36.0006 22.8576C38.2441 22.0927 39.4796 21.0195 39.4796 19.8357C39.4796 18.6519 38.2441 17.5787 36.0006 16.8138C33.8957 16.0963 31.1055 15.701 28.1438 15.701C25.1822 15.701 22.392 16.0963 20.2871 16.8139C18.0436 17.5787 16.8081 18.6519 16.8081 19.8357C16.8081 21.0195 18.0436 22.0927 20.2871 22.8576Z" fill="#B7F1DD"/>
<path fill-rule="evenodd" clip-rule="evenodd" d="M38.7063 24.4352C38.5285 24.4352 38.3359 24.4954 38.1173 24.619C37.7946 24.8017 37.3871 24.9419 36.9556 25.0905L36.8306 25.1336C34.4751 25.9481 31.3901 26.3966 28.1439 26.3966C24.8977 26.3966 21.8127 25.9481 19.4572 25.1336C18.7911 24.9033 18.6059 24.8309 18.3598 24.7044C18.1096 24.5733 17.8767 24.5067 17.6674 24.5067C17.214 24.5067 16.9356 24.8108 16.8607 25.1123C16.8258 25.2529 16.8081 25.3962 16.8081 25.5385C16.8081 26.7389 18.0436 27.8273 20.287 28.6029C22.3919 29.3306 25.1822 29.7314 28.1438 29.7314C31.1054 29.7314 33.8957 29.3306 36.0006 28.6029C38.2441 27.8273 39.4796 26.7389 39.4796 25.5385C39.4796 25.3516 39.4492 25.164 39.3883 24.9782C39.2336 24.5058 38.8947 24.4352 38.7063 24.4352Z" fill="#B7F1DD"/>
<path fill-rule="evenodd" clip-rule="evenodd" d="M38.7065 30.0106C38.5287 30.0106 38.3361 30.0708 38.1175 30.1944C37.7951 30.3769 37.3879 30.517 36.9569 30.6654L36.8307 30.709C34.4751 31.5233 31.3901 31.9719 28.144 31.9719C24.8978 31.9719 21.8128 31.5233 19.4573 30.709C18.7911 30.4785 18.6059 30.406 18.3598 30.2796C18.1096 30.1485 17.8767 30.0819 17.6674 30.0819C17.214 30.0819 16.9356 30.3861 16.8607 30.6876C16.8258 30.8281 16.8081 30.9714 16.8081 31.1137C16.8081 32.3142 18.0436 33.4025 20.287 34.1782C22.3919 34.906 25.1822 35.3068 28.1438 35.3068C31.1054 35.3068 33.8957 34.906 36.0006 34.1782C38.2441 33.4025 39.4796 32.3142 39.4796 31.1137C39.4796 30.9268 39.4492 30.7391 39.3883 30.5535C39.2338 30.0812 38.8948 30.0106 38.7065 30.0106Z" fill="#9DEFD2"/>
<path fill-rule="evenodd" clip-rule="evenodd" d="M38.7063 35.5861C38.5285 35.5861 38.3359 35.6462 38.1174 35.7698C37.7943 35.9526 37.3866 36.0929 36.9547 36.2416L36.8306 36.2845C34.4751 37.0989 31.3901 37.5475 28.1439 37.5475C24.8977 37.5475 21.8127 37.0989 19.4572 36.2845C18.7911 36.0541 18.6059 35.9817 18.3598 35.8552C18.1096 35.7241 17.8767 35.6575 17.6674 35.6575C17.214 35.6575 16.9356 35.9616 16.8607 36.2632C16.8258 36.4037 16.8081 36.547 16.8081 36.6893C16.8081 37.8897 18.0436 38.978 20.287 39.7537C22.3919 40.4815 25.1822 40.8823 28.1438 40.8823C31.1054 40.8823 33.8957 40.4815 36.0006 39.7537C38.2441 38.9781 39.4796 37.8898 39.4796 36.6893C39.4796 36.5023 39.4492 36.3147 39.3884 36.1291C39.2337 35.6566 38.8947 35.5861 38.7063 35.5861Z" fill="#9DEFD2"/>
<path d="M55.3363 28C55.3363 42.8941 43.2623 54.9682 28.3682 54.9682C13.4741 54.9682 1.4 42.8941 1.4 28C1.4 13.1059 13.4741 1.03184 28.3682 1.03184C43.2623 1.03184 55.3363 13.1059 55.3363 28Z" stroke="#9DEFD2" stroke-width="1.8"/>
</svg>

<svg width="57" height="56" fill="none" xmlns="http://www.w3.org/2000/svg"><path d="M20.287 22.858c2.105.717 4.895 1.113 7.857 1.113 2.962 0 5.752-.396 7.857-1.113 2.243-.765 3.479-1.838 3.479-3.022 0-1.184-1.236-2.257-3.48-3.022-2.104-.718-4.895-1.113-7.856-1.113-2.962 0-5.752.395-7.857 1.113-2.243.765-3.479 1.838-3.479 3.022 0 1.184 1.236 2.257 3.48 3.022z" fill="#B7F1DD"/><path fill-rule="evenodd" clip-rule="evenodd" d="M38.706 24.435c-.178 0-.37.06-.589.184-.322.183-.73.323-1.161.471l-.125.044c-2.356.814-5.44 1.263-8.687 1.263-3.246 0-6.331-.449-8.687-1.263-.666-.23-.851-.303-1.097-.43-.25-.13-.483-.197-.693-.197a.807.807 0 00-.806.605 1.77 1.77 0 00-.053.427c0 1.2 1.236 2.288 3.479 3.064 2.105.728 4.895 1.128 7.857 1.128 2.961 0 5.752-.4 7.857-1.128 2.243-.776 3.479-1.864 3.479-3.065 0-.186-.03-.374-.092-.56-.154-.472-.493-.543-.682-.543z" fill="#B7F1DD"/><path fill-rule="evenodd" clip-rule="evenodd" d="M38.706 30.01c-.177 0-.37.06-.589.184-.322.183-.73.323-1.16.471l-.126.044c-2.356.814-5.44 1.263-8.687 1.263-3.246 0-6.331-.449-8.687-1.263-.666-.23-.851-.303-1.097-.43-.25-.13-.483-.197-.693-.197a.807.807 0 00-.806.606 1.77 1.77 0 00-.053.426c0 1.2 1.236 2.289 3.479 3.064 2.105.728 4.895 1.129 7.857 1.129 2.961 0 5.752-.401 7.857-1.129 2.243-.775 3.479-1.864 3.479-3.064 0-.187-.03-.375-.092-.56-.154-.473-.493-.543-.681-.543zM38.706 35.586c-.178 0-.37.06-.589.184-.323.183-.73.323-1.162.472l-.124.043c-2.356.814-5.44 1.263-8.687 1.263-3.246 0-6.331-.45-8.687-1.264-.666-.23-.851-.302-1.097-.429-.25-.13-.483-.197-.693-.197a.807.807 0 00-.806.605 1.77 1.77 0 00-.053.426c0 1.2 1.236 2.289 3.479 3.065 2.105.727 4.895 1.128 7.857 1.128 2.961 0 5.752-.4 7.857-1.128 2.243-.776 3.479-1.864 3.479-3.065 0-.187-.03-.374-.092-.56-.154-.472-.493-.543-.682-.543z" fill="#9DEFD2"/><path d="M55.336 28c0 14.894-12.074 26.968-26.968 26.968S1.4 42.894 1.4 28 13.474 1.032 28.368 1.032 55.336 13.106 55.336 28z" stroke="#9DEFD2" stroke-width="1.8"/></svg>
